!!!OTL: No_51_War_Song_of_Odjîb'we's_Childhood.krn
!!!REG: Great_Lakes
!!!LANG: Non-Tone
!!!LING_GROUP: Algonquin
!!!SOCIAL_FUNCTION: songs of war
**kern	**kern
*staff2	*staff1
=1-	=1-
*clefF4	*clefG2
*k[b-]	*k[b-]
*M2/4	*M2/4
12GG^/	4g/
12r	.
12GG/	.
12GG^/	4f/
12r	.
12GG/	.
=2||	=2||
*M3/4	*M3/4
2.r	8.d/L
.	16d/Jk
.	2d/
=3||	=3||
*M2/4	*M2/4
2r	4g/
.	4f/
=4||	=4||
*M3/4	*M3/4
2.r	8.d/L
.	16d/Jk
.	[4d/
.	8.d/L]
.	16f/Jk
=5||	=5||
*M2/4	*M2/4
2r	8.f/L
.	16d/Jk
.	8.d/L
.	16d/Jk
=6	=6
2r	8.c/L
.	16B-/Jk
.	8.B-/L
.	16c/Jk
=7	=7
2r	8.B-/L
.	16G/Jk
.	4G/
*	*clefF4
=8	=8
*	*clefF4
2r	4F\
.	8.D\L
.	16F\Jk
=9	=9
2r	4G\
.	4F\
=10	=10
2r	8D\L
.	8F\J
.	16D\LK
.	8.D\J
=11	=11
2r	2D\
==	==
*-	*-
